resources/haticons/SVG/table2.svg

<svg height="24" width="24" xmlns="http://www.w3.org/2000/svg"><path d="m0 1.5v21h24v-21zm9 13.5v-4.5h6v4.5zm6 1.5v4.5h-6v-4.5zm0-12v4.5h-6v-4.5zm-7.5 0v4.5h-6v-4.5zm-6 6h6v4.5h-6zm15 0h6v4.5h-6zm0-1.5v-4.5h6v4.5zm-15 7.5h6v4.5h-6zm15 4.5v-4.5h6v4.5z"/></svg>

<svg xmlns="http://www.w3.org/2000/svg" width="24" height="24"><path d="M0 1.5v21h24v-21H0zM9 15v-4.5h6V15H9zm6 1.5V21H9v-4.5h6zm0-12V9H9V4.5h6zm-7.5 0V9h-6V4.5h6zm-6 6h6V15h-6v-4.5zm15 0h6V15h-6v-4.5zm0-1.5V4.5h6V9h-6zm-15 7.5h6V21h-6v-4.5zm15 4.5v-4.5h6V21h-6z"/></svg>
